;FLAVOR:Marlin
;TIME:26925
;Filament used: 74.3232m
;Layer height: 0.4
;MINX:5.055
;MINY:4.538
;MINZ:0.06
;MAXX:195.455
;MAXY:254.938
;MAXZ:13.66
;Generated with Cura_SteamEngine 4.6.0
M104 S215
M105
M109 S215
M82 ;absolute extrusion mode
G28 ;Home
G29 ; execute ABL
G1 Z15.0 F6000 ;Move the platform down 15mm
G92 E0
G1 F200 E3
G92 E0
G92 E0
G92 E0
G1 F1500 E-1.5
;LAYER_COUNT:35
;LAYER:0
M106 S76.5
G1 F600 Z1.06
G0 F3600 X185.597 Y4.554 Z1.06
;TYPE:SKIRT
G1 F600 Z0.06
G1 F1500 E0
G1 F2400 X186.144 Y4.587 E0.00547
G1 X186.695 Y4.652 E0.011
G1 X187.216 Y4.739 E0.01627
G1 X187.924 Y4.906 E0.02353
G1 X188.422 Y5.054 E0.02872
G1 X188.961 Y5.247 E0.03443
G1 X189.577 Y5.513 E0.04112
G1 X190.098 Y5.774 E0.04694
G1 X190.583 Y6.054 E0.05253
G1 X191.055 Y6.364 E0.05816
G1 X191.663 Y6.818 E0.06573
G1 X192.267 Y7.347 E0.07374
G1 X192.724 Y7.81 E0.08024
G1 X193.167 Y8.321 E0.08698
G1 X193.59 Y8.877 E0.09395
G1 X193.964 Y9.451 E0.10079
G1 X194.369 Y10.187 E0.10917
G1 X194.655 Y10.805 E0.11597
G1 X194.872 Y11.375 E0.12205
G1 X195.036 Y11.883 E0.12738
G1 X195.196 Y12.513 E0.13386
G1 X195.313 Y13.111 E0.13994
G1 X195.391 Y13.699 E0.14586
G1 X195.442 Y14.636 E0.15523
G1 X195.445 Y14.76 E0.15646
G1 X195.455 Y15.717 E0.16601
G1 X195.455 Y244.081 E2.44464
G1 X195.448 Y244.62 E2.45002
G1 X195.442 Y244.798 E2.45179
G1 X195.411 Y245.452 E2.45833
G1 X195.336 Y246.222 E2.46605
G1 X195.166 Y247.096 E2.47493
G1 X195.009 Y247.682 E2.48098
G1 X194.767 Y248.385 E2.4884
G1 X194.521 Y248.974 E2.49477
G1 X194.217 Y249.581 E2.50155
G1 X193.859 Y250.196 E2.50865
G1 X193.478 Y250.753 E2.51538
G1 X192.963 Y251.398 E2.52362
G1 X192.531 Y251.869 E2.52999
G1 X192.045 Y252.33 E2.53668
G1 X191.486 Y252.8 E2.54396
G1 X191.012 Y253.142 E2.5498
G1 X190.585 Y253.42 E2.55488
G1 X189.986 Y253.759 E2.56175
G1 X189.446 Y254.024 E2.56775
G1 X188.946 Y254.234 E2.57316
G1 X188.295 Y254.46 E2.58004
G1 X187.772 Y254.609 E2.58546
G1 X187.254 Y254.729 E2.59077
G1 X186.613 Y254.834 E2.59725
G1 X186.028 Y254.896 E2.60312
G1 X185.488 Y254.923 E2.60851
G1 X185.367 Y254.926 E2.60972
G1 X184.368 Y254.938 E2.61969
G1 X15.962 Y254.938 E4.30005
G1 X15.049 Y254.925 E4.30916
G1 X14.546 Y254.901 E4.31419
G1 X13.948 Y254.841 E4.32019
G1 X13.165 Y254.708 E4.32811
G1 X12.445 Y254.529 E4.33551
G1 X11.801 Y254.323 E4.34226
G1 X11.245 Y254.102 E4.34823
G1 X10.686 Y253.845 E4.35437
G1 X10.086 Y253.514 E4.36121
G1 X9.636 Y253.236 E4.36648
G1 X9.166 Y252.909 E4.3722
G1 X8.58 Y252.435 E4.37972
G1 X7.924 Y251.811 E4.38875
G1 X7.463 Y251.304 E4.39559
G1 X7.116 Y250.866 E4.40116
G1 X6.694 Y250.258 E4.40855
G1 X6.407 Y249.789 E4.41404
G1 X6.107 Y249.222 E4.42044
G1 X5.773 Y248.459 E4.42875
G1 X5.553 Y247.843 E4.43527
G1 X5.371 Y247.197 E4.44197
G1 X5.219 Y246.499 E4.4491
G1 X5.135 Y245.916 E4.45498
G1 X5.083 Y245.212 E4.46202
G1 X5.078 Y245.054 E4.4636
G1 X5.056 Y243.899 E4.47512
G1 X5.055 Y243.8 E4.47611
G1 X5.055 Y15.501 E6.75409
G1 X5.057 Y15.076 E6.75833
G1 X5.072 Y14.378 E6.76529
G1 X5.104 Y13.856 E6.77051
G1 X5.167 Y13.324 E6.77586
G1 X5.251 Y12.817 E6.78099
G1 X5.412 Y12.112 E6.7882
G1 X5.572 Y11.571 E6.79383
G1 X5.774 Y11.009 E6.79979
G1 X6.017 Y10.446 E6.80591
G1 X6.271 Y9.934 E6.81161
G1 X6.519 Y9.495 E6.81664
G1 X6.881 Y8.937 E6.82328
G1 X7.126 Y8.596 E6.82747
G1 X7.525 Y8.107 E6.83377
G1 X7.858 Y7.734 E6.83876
G1 X8.346 Y7.25 E6.84561
G1 X8.827 Y6.833 E6.85197
G1 X9.294 Y6.475 E6.85784
G1 X9.856 Y6.102 E6.86457
G1 X10.311 Y5.832 E6.86985
G1 X10.946 Y5.504 E6.87698
G1 X11.448 Y5.289 E6.88243
G1 X11.992 Y5.086 E6.88822
G1 X12.84 Y4.84 E6.89703
G1 X13.359 Y4.733 E6.90232
G1 X14.09 Y4.618 E6.9097
G1 X14.807 Y4.559 E6.91688
G1 X15.44 Y4.541 E6.9232
G1 X15.659 Y4.538 E6.92538
G1 X184.661 Y4.538 E8.61169
G1 X184.889 Y4.539 E8.61397
G1 X185.597 Y4.554 E8.62103
G1 F1500 E7.12103
G1 F600 Z1.06
;MESH:EnclosureBottom_MitRippen.stl
G0 F3600 X185.78 Y10.773 Z1.06
;TYPE:WALL-INNER
G1 F600 Z0.06
G1 F1500 E8.62103
G1 F2400 X186.124 Y10.833 E8.62452
G1 X186.452 Y10.921 E8.62791
G1 X186.796 Y11.047 E8.63156
G1 X187.101 Y11.189 E8.63492
G1 X187.392 Y11.357 E8.63827
G1 X187.691 Y11.565 E8.64191
G1 X188.083 Y11.91 E8.64712
G1 X188.428 Y12.302 E8.65233
G1 X188.626 Y12.587 E8.65579
G1 X188.875 Y13.041 E8.66096
G1 X189.02 Y13.39 E8.66473
G1 X189.116 Y13.695 E8.66792
G1 X189.195 Y14.052 E8.67157
G1 X189.237 Y14.373 E8.6748
G1 X189.255 Y15.231 E8.68336
G1 X189.255 Y244.707 E10.97308
G1 X189.22 Y245.265 E10.97866
G1 X189.12 Y245.764 E10.98374
G1 X188.95 Y246.265 E10.98902
G1 X188.709 Y246.754 E10.99446
G1 X188.537 Y247.024 E10.99765
G1 X188.207 Y247.435 E11.00291
G1 X187.819 Y247.805 E11.00826
G1 X187.543 Y248.017 E11.01173
G1 X187.247 Y248.206 E11.01524
G1 X186.965 Y248.352 E11.0184
G1 X186.609 Y248.499 E11.02225
G1 X186.296 Y248.599 E11.02553
G1 X185.939 Y248.677 E11.02917
G1 X185.618 Y248.72 E11.0324
G1 X184.867 Y248.738 E11.0399
G1 X15.299 Y248.738 E12.73186
G1 X14.901 Y248.721 E12.73583
G1 X14.561 Y248.676 E12.73925
G1 X14.049 Y248.55 E12.74451
G1 X13.724 Y248.432 E12.74796
G1 X13.415 Y248.289 E12.75136
G1 X12.958 Y248.012 E12.75669
G1 X12.689 Y247.805 E12.76008
G1 X12.303 Y247.434 E12.76542
G1 X12.08 Y247.17 E12.76887
G1 X11.872 Y246.871 E12.77251
G1 X11.714 Y246.598 E12.77565
G1 X11.5 Y246.11 E12.78097
G1 X11.349 Y245.593 E12.78634
G1 X11.291 Y245.262 E12.7897
G1 X11.258 Y244.881 E12.79351
G1 X11.255 Y244.738 E12.79494
G1 X11.255 Y15.239 E15.08489
G1 X11.26 Y14.547 E15.0918
G1 X11.287 Y14.24 E15.09487
G1 X11.354 Y13.858 E15.09874
G1 X11.438 Y13.544 E15.10198
G1 X11.564 Y13.198 E15.10566
G1 X11.703 Y12.9 E15.10894
G1 X11.881 Y12.591 E15.1125
G1 X12.078 Y12.308 E15.11594
G1 X12.437 Y11.9 E15.12136
G1 X12.675 Y11.682 E15.12458
G1 X12.958 Y11.464 E15.12814
G1 X13.424 Y11.183 E15.13357
G1 X13.715 Y11.047 E15.13678
G1 X14.059 Y10.921 E15.14044
G1 X14.378 Y10.836 E15.14373
G1 X14.903 Y10.755 E15.14903
G1 X15.299 Y10.738 E15.15298
G1 X184.881 Y10.738 E16.84508
G1 X185.428 Y10.743 E16.85054
G1 X185.78 Y10.773 E16.85406
G0 F3600 X183.629 Y17.149
G1 F2400 X183.261 Y16.732 E16.85961
G1 X182.844 Y16.364 E16.86516
G1 X182.38 Y16.055 E16.87073
G1 X181.882 Y15.81 E16.87626
G1 X181.356 Y15.631 E16.88181
G1 X180.809 Y15.523 E16.88737
G1 X180.255 Y15.486 E16.89291
G1 X179.701 Y15.523 E16.89845
G1 X179.154 Y15.631 E16.90401
G1 X178.628 Y15.81 E16.90956
G1 X178.13 Y16.055 E16.9151
G1 X177.667 Y16.364 E16.92065
G1 X177.249 Y16.732 E16.92621
G1 X176.882 Y17.149 E16.93175
G1 X176.573 Y17.613 E16.93731
G1 X176.328 Y18.109 E16.94283
G1 X176.148 Y18.637 E16.9484
G1 X176.04 Y19.184 E16.95396
G1 X176.003 Y19.738 E16.9595
G1 X176.04 Y20.292 E16.96504
G1 X176.148 Y20.839 E16.97061
G1 X176.328 Y21.367 E16.97617
G1 X176.573 Y21.863 E16.98169
G1 X176.882 Y22.326 E16.98725
G1 X177.249 Y22.744 E16.9928
G1 X177.667 Y23.111 E16.99835
G1 X178.13 Y23.42 E17.0039
G1 X178.626 Y23.665 E17.00942
G1 X179.154 Y23.845 E17.01499
G1 X179.701 Y23.953 E17.02055
G1 X180.255 Y23.99 E17.02609
G1 X180.809 Y23.953 E17.03163
G1 X181.356 Y23.845 E17.03719
G1 X181.884 Y23.665 E17.04276
G1 X182.38 Y23.42 E17.04828
G1 X182.844 Y23.111 E17.05384
G1 X183.261 Y22.744 E17.05938
G1 X183.629 Y22.326 E17.06494
G1 X183.938 Y21.863 E17.0705
G1 X184.183 Y21.365 E17.07603
G1 X184.362 Y20.839 E17.08158
G1 X184.47 Y20.292 E17.08714
G1 X184.507 Y19.738 E17.09268
G1 X184.47 Y19.184 E17.09822
G1 X184.362 Y18.637 E17.10378
G1 X184.183 Y18.111 E17.10933
G1 X183.938 Y17.613 E17.11487
G1 X183.629 Y17.149 E17.12043
G0 F3600 X181.744 Y16.144
G0 X180.762 Y15.881
G0 X103.629 Y17.149
G1 F2400 X103.261 Y16.732 E17.12598
G1 X102.844 Y16.364 E17.13153
G1 X102.38 Y16.055 E17.13709
G1 X101.882 Y15.81 E17.14263
G1 X101.356 Y15.631 E17.14817
G1 X100.809 Y15.523 E17.15374
G1 X100.255 Y15.486 E17.15928
G1 X99.701 Y15.523 E17.16482
G1 X99.154 Y15.631 E17.17038
G1 X98.628 Y15.81 E17.17592
G1 X98.13 Y16.055 E17.18146
G1 X97.667 Y16.364 E17.18702
G1 X97.249 Y16.732 E17.19257
G1 X96.882 Y17.149 E17.19811
G1 X96.573 Y17.613 E17.20368
G1 X96.328 Y18.109 E17.2092
G1 X96.148 Y18.637 E17.21476
G1 X96.04 Y19.184 E17.22033
G1 X96.003 Y19.738 E17.22587
G1 X96.04 Y20.292 E17.23141
G1 X96.148 Y20.839 E17.23697
G1 X96.328 Y21.367 E17.24254
G1 X96.573 Y21.863 E17.24806
G1 X96.882 Y22.326 E17.25361
G1 X97.249 Y22.744 E17.25916
G1 X97.667 Y23.111 E17.26471
G1 X98.13 Y23.42 E17.27027
G1 X98.626 Y23.665 E17.27579
G1 X99.154 Y23.845 E17.28135
G1 X99.701 Y23.953 E17.28691
G1 X100.255 Y23.99 E17.29246
G1 X100.809 Y23.953 E17.298
G1 X101.356 Y23.845 E17.30356
G1 X101.884 Y23.665 E17.30912
G1 X102.38 Y23.42 E17.31464
G1 X102.844 Y23.111 E17.32021
G1 X103.261 Y22.744 E17.32575
G1 X103.629 Y22.326 E17.33131
G1 X103.938 Y21.863 E17.33686
G1 X104.183 Y21.365 E17.3424
G1 X104.362 Y20.839 E17.34794
G1 X104.47 Y20.292 E17.35351
G1 X104.507 Y19.738 E17.35905
G1 X104.47 Y19.184 E17.36459
G1 X104.362 Y18.637 E17.37015
G1 X104.183 Y18.111 E17.37569
G1 X103.938 Y17.613 E17.38123
G1 X103.629 Y17.149 E17.38679
G0 F3600 X101.744 Y16.144
G0 X100.762 Y15.881
G0 X23.629 Y17.149
G1 F2400 X23.261 Y16.732 E17.39234
G1 X22.844 Y16.364 E17.39789
G1 X22.38 Y16.055 E17.40346
G1 X21.882 Y15.81 E17.40899
G1 X21.356 Y15.631 E17.41454
G1 X20.809 Y15.523 E17.4201
G1 X20.255 Y15.486 E17.42564
G1 X19.701 Y15.523 E17.43118
G1 X19.154 Y15.631 E17.43674
G1 X18.628 Y15.81 E17.44229
G1 X18.13 Y16.055 E17.44783
G1 X17.667 Y16.364 E17.45338
G1 X17.249 Y16.732 E17.45894
G1 X16.882 Y17.149 E17.46448
G1 X16.573 Y17.613 E17.47004
G1 X16.328 Y18.109 E17.47556
G1 X16.148 Y18.637 E17.48113
G1 X16.04 Y19.184 E17.48669
G1 X16.003 Y19.738 E17.49223
G1 X16.04 Y20.292 E17.49777
G1 X16.148 Y20.839 E17.50334
G1 X16.328 Y21.367 E17.5089
G1 X16.573 Y21.863 E17.51442
G1 X16.882 Y22.326 E17.51998
G1 X17.249 Y22.744 E17.52553
G1 X17.667 Y23.111 E17.53108
G1 X18.13 Y23.42 E17.53663
G1 X18.626 Y23.665 E17.54215
G1 X19.154 Y23.845 E17.54772
G1 X19.701 Y23.953 E17.55328
G1 X20.255 Y23.99 E17.55882
G1 X20.809 Y23.953 E17.56436
G1 X21.356 Y23.845 E17.56992
G1 X21.884 Y23.665 E17.57549
G1 X22.38 Y23.42 E17.58101
G1 X22.844 Y23.111 E17.58657
G1 X23.261 Y22.744 E17.59212
G1 X23.629 Y22.326 E17.59767
G1 X23.938 Y21.863 E17.60323
G1 X24.183 Y21.365 E17.60876
G1 X24.362 Y20.839 E17.61431
G1 X24.47 Y20.292 E17.61987
G1 X24.507 Y19.738 E17.62541
G1 X24.47 Y19.184 E17.63095
G1 X24.362 Y18.637 E17.63652
G1 X24.183 Y18.111 E17.64206
G1 X23.938 Y17.613 E17.6476
G1 X23.629 Y17.149 E17.65316
G0 F3600 X24.063 Y19.022
G0 X33.629 Y127.149
G1 F2400 X33.261 Y126.732 E17.65871
G1 X32.844 Y126.364 E17.66426
G1 X32.38 Y126.055 E17.66982
G1 X31.882 Y125.81 E17.67536
G1 X31.356 Y125.631 E17.6809
G1 X30.809 Y125.523 E17.68647
G1 X30.255 Y125.486 E17.69201
G1 X29.701 Y125.523 E17.69755
G1 X29.154 Y125.631 E17.70311
G1 X28.628 Y125.81 E17.70865
G1 X28.13 Y126.055 E17.71419
G1 X27.667 Y126.364 E17.71975
G1 X27.249 Y126.732 E17.7253
G1 X26.882 Y127.149 E17.73085
G1 X26.573 Y127.613 E17.73641
G1 X26.328 Y128.109 E17.74193
G1 X26.148 Y128.637 E17.74749
G1 X26.04 Y129.184 E17.75306
G1 X26.003 Y129.738 E17.7586
G1 X26.04 Y130.292 E17.76414
G1 X26.148 Y130.839 E17.7697
G1 X26.328 Y131.367 E17.77527
G1 X26.573 Y131.863 E17.78079
G1 X26.882 Y132.326 E17.78634
G1 X27.249 Y132.744 E17.79189
G1 X27.667 Y133.111 E17.79744
G1 X28.13 Y133.42 E17.803
G1 X28.626 Y133.665 E17.80852
G1 X29.154 Y133.845 E17.81408
G1 X29.701 Y133.953 E17.81965
G1 X30.255 Y133.99 E17.82519
G1 X30.809 Y133.953 E17.83073
G1 X31.356 Y133.845 E17.83629
G1 X31.884 Y133.665 E17.84186
G1 X32.38 Y133.42 E17.84738
G1 X32.844 Y133.111 E17.85294
G1 X33.261 Y132.744 E17.85848
G1 X33.629 Y132.326 E17.86404
G1 X33.938 Y131.863 E17.86959
G1 X34.183 Y131.365 E17.87513
G1 X34.362 Y130.839 E17.88067
G1 X34.47 Y130.292 E17.88624
G1 X34.507 Y129.738 E17.89178
G1 X34.47 Y129.184 E17.89732
G1 X34.362 Y128.637 E17.90288
G1 X34.183 Y128.111 E17.90842
G1 X33.938 Y127.613 E17.91396
G1 X33.629 Y127.149 E17.91952
G0 F3600 X34.112 Y129.231
G0 X34.112 Y130.051
G0 X23.629 Y237.149
G1 F2400 X23.261 Y236.732 E17.92507
G1 X22.844 Y236.364 E17.93062
G1 X22.38 Y236.055 E17.93619
G1 X21.882 Y235.81 E17.94172
G1 X21.356 Y235.631 E17.94727
G1 X20.809 Y235.523 E17.95283
G1 X20.255 Y235.486 E17.95837
G1 X19.701 Y235.523 E17.96391
G1 X19.154 Y235.631 E17.96947
G1 X18.628 Y235.81 E17.97502
G1 X18.13 Y236.055 E17.98056
G1 X17.667 Y236.364 E17.98611
G1 X17.249 Y236.732 E17.99167
G1 X16.882 Y237.149 E17.99721
G1 X16.573 Y237.613 E18.00277
G1 X16.328 Y238.109 E18.00829
G1 X16.148 Y238.637 E18.01386
G1 X16.04 Y239.184 E18.01942
G1 X16.003 Y239.738 E18.02496
G1 X16.04 Y240.292 E18.0305
G1 X16.148 Y240.839 E18.03607
G1 X16.328 Y241.367 E18.04163
G1 X16.573 Y241.863 E18.04715
G1 X16.882 Y242.326 E18.05271
G1 X17.249 Y242.744 E18.05826
G1 X17.667 Y243.111 E18.06381
G1 X18.13 Y243.42 E18.06936
G1 X18.626 Y243.665 E18.07488
G1 X19.154 Y243.845 E18.08045
G1 X19.701 Y243.953 E18.08601
G1 X20.255 Y243.99 E18.09155
G1 X20.809 Y243.953 E18.09709
G1 X21.356 Y243.845 E18.10265
G1 X21.884 Y243.665 E18.10822
G1 X22.38 Y243.42 E18.11374
G1 X22.844 Y243.111 E18.1193
G1 X23.261 Y242.744 E18.12485
G1 X23.629 Y242.326 E18.1304
G1 X23.938 Y241.863 E18.13596
G1 X24.183 Y241.365 E18.14149
G1 X24.362 Y240.839 E18.14704
G1 X24.47 Y240.292 E18.1526
G1 X24.507 Y239.738 E18.15814
G1 X24.47 Y239.184 E18.16368
G1 X24.362 Y238.637 E18.16925
G1 X24.183 Y238.111 E18.17479
G1 X23.938 Y237.613 E18.18033
G1 X23.629 Y237.149 E18.18589
G0 F3600 X100.255 Y235.847
G0 X101.262 Y235.98
G0 X103.629 Y237.149
G1 F2400 X103.261 Y236.732 E18.19144
G1 X102.844 Y236.364 E18.19699
G1 X102.38 Y236.055 E18.20255
G1 X101.882 Y235.81 E18.20809
G1 X101.356 Y235.631 E18.21363
G1 X100.809 Y235.523 E18.2192
G1 X100.255 Y235.486 E18.22474
G1 X99.701 Y235.523 E18.23028
G1 X99.154 Y235.631 E18.23584
G1 X98.628 Y235.81 E18.24138
G1 X98.13 Y236.055 E18.24692
G1 X97.667 Y236.364 E18.25248
G1 X97.249 Y236.732 E18.25803
G1 X96.882 Y237.149 E18.26358
G1 X96.573 Y237.613 E18.26914
G1 X96.328 Y238.109 E18.27466
G1 X96.148 Y238.637 E18.28022
G1 X96.04 Y239.184 E18.28579
G1 X96.003 Y239.738 E18.29133
G1 X96.04 Y240.292 E18.29687
G1 X96.148 Y240.839 E18.30243
G1 X96.328 Y241.367 E18.308
G1 X96.573 Y241.863 E18.31352
G1 X96.882 Y242.326 E18.31907
G1 X97.249 Y242.744 E18.32462
G1 X97.667 Y243.111 E18.33017
G1 X98.13 Y243.42 E18.33573
G1 X98.626 Y243.665 E18.34125
G1 X99.154 Y243.845 E18.34681
G1 X99.701 Y243.953 E18.35238
G1 X100.255 Y243.99 E18.35792
G1 X100.809 Y243.953 E18.36346
G1 X101.356 Y243.845 E18.36902
G1 X101.884 Y243.665 E18.37459
G1 X102.38 Y243.42 E18.38011
G1 X102.844 Y243.111 E18.38567
G1 X103.261 Y242.744 E18.39121
G1 X103.629 Y242.326 E18.39677
G1 X103.938 Y241.863 E18.40232
G1 X104.183 Y241.365 E18.40786
G1 X104.362 Y240.839 E18.4134
G1 X104.47 Y240.292 E18.41897
G1 X104.507 Y239.738 E18.42451
G1 X104.47 Y239.184 E18.43005
G1 X104.362 Y238.637 E18.43561
G1 X104.183 Y238.111 E18.44115
G1 X103.938 Y237.613 E18.44669
G1 X103.629 Y237.149 E18.45226
G0 F3600 X180.255 Y235.847
G0 X181.262 Y235.98
G0 X183.629 Y237.149
G1 F2400 X183.261 Y236.732 E18.4578
G1 X182.844 Y236.364 E18.46335
G1 X182.38 Y236.055 E18.46892
G1 X181.882 Y235.81 E18.47445
G1 X181.356 Y235.631 E18.48
G1 X180.809 Y235.523 E18.48556
G1 X180.255 Y235.486 E18.4911
G1 X179.701 Y235.523 E18.49664
G1 X179.154 Y235.631 E18.50221
G1 X178.628 Y235.81 E18.50775
G1 X178.13 Y236.055 E18.51329
G1 X177.667 Y236.364 E18.51884
G1 X177.249 Y236.732 E18.5244
G1 X176.882 Y237.149 E18.52994
G1 X176.573 Y237.613 E18.5355
G1 X176.328 Y238.109 E18.54102
G1 X176.148 Y238.637 E18.54659
G1 X176.04 Y239.184 E18.55215
G1 X176.003 Y239.738 E18.55769
G1 X176.04 Y240.292 E18.56323
G1 X176.148 Y240.839 E18.5688
G1 X176.328 Y241.367 E18.57436
G1 X176.573 Y241.863 E18.57988
G1 X176.882 Y242.326 E18.58544
G1 X177.249 Y242.744 E18.59099
G1 X177.667 Y243.111 E18.59654
G1 X178.13 Y243.42 E18.60209
G1 X178.626 Y243.665 E18.60761
G1 X179.154 Y243.845 E18.61318
G1 X179.701 Y243.953 E18.61874
G1 X180.255 Y243.99 E18.62428
G1 X180.809 Y243.953 E18.62982
G1 X181.356 Y243.845 E18.63538
G1 X181.884 Y243.665 E18.64095
G1 X182.38 Y243.42 E18.64647
G1 X182.844 Y243.111 E18.65203
G1 X183.261 Y242.744 E18.65758
