;FLAVOR:Marlin
;TIME:1284
;Filament used: 2.4698m
;Layer height: 0.4
;MINX:74.4
;MINY:124.4
;MINZ:0.06
;MAXX:125.6
;MAXY:145.6
;MAXZ:63.06
;POSTPROCESSED
;ChangeAtZ instances: 1
;Generated with Cura_SteamEngine 4.6.0
M104 S210
M105
M109 S210
M82 ;absolute extrusion mode
G28 ;Home
G29 ; execute ABL
G1 Z15.0 F6000 ;Move the platform down 15mm
G92 E0
G1 F200 E3
G92 E0
G92 E0
G92 E0
G1 F1500 E-1.5
;LAYER_COUNT:156
;LAYER:0
M106 S76.5
G1 F600 Z1.06
G0 F3600 X120.065 Y124.811 Z1.06
;TYPE:SKIRT
G1 F600 Z0.06
G1 F1500 E0
G1 F2400 X120.708 Y124.86 E0.00643
G1 X121.34 Y124.988 E0.01287
G1 X121.951 Y125.194 E0.0193
G1 X122.532 Y125.473 E0.02573
G1 X123.074 Y125.822 E0.03217
G1 X123.568 Y126.236 E0.0386
G1 X124.008 Y126.708 E0.04504
G1 X124.386 Y127.23 E0.05147
G1 X124.696 Y127.795 E0.0579
G1 X124.934 Y128.394 E0.06433
G1 X125.096 Y129.018 E0.07076
G1 X125.189 Y129.864 E0.07925
G1 X125.2 Y130.33 E0.0839
G1 X125.2 Y139.328 E0.17369
G1 X125.191 Y140.055 E0.18094
G1 X125.143 Y140.698 E0.18737
G1 X125.016 Y141.33 E0.19381
G1 X124.811 Y141.942 E0.20025
G1 X124.533 Y142.523 E0.20667
G1 X124.185 Y143.066 E0.21311
G1 X123.772 Y143.561 E0.21954
G1 X123.301 Y144.001 E0.22597
G1 X122.779 Y144.38 E0.23241
G1 X122.215 Y144.691 E0.23884
G1 X121.616 Y144.93 E0.24527
G1 X120.993 Y145.094 E0.2517
G1 X120.137 Y145.189 E0.26029
G1 X119.67 Y145.2 E0.26495
G1 X80.64 Y145.2 E0.6544
G1 X79.942 Y145.191 E0.66136
G1 X79.299 Y145.142 E0.6678
G1 X78.667 Y145.015 E0.67423
G1 X78.056 Y144.81 E0.68066
G1 X77.475 Y144.532 E0.68709
G1 X76.932 Y144.183 E0.69353
G1 X76.437 Y143.77 E0.69996
G1 X75.997 Y143.299 E0.70639
G1 X75.618 Y142.777 E0.71283
G1 X75.307 Y142.213 E0.71925
G1 X75.069 Y141.614 E0.72568
G1 X74.906 Y140.99 E0.73212
G1 X74.811 Y140.131 E0.74074
G1 X74.8 Y139.658 E0.74546
G1 X74.8 Y130.604 E0.83581
G1 X74.809 Y129.939 E0.84244
G1 X74.858 Y129.296 E0.84888
G1 X74.986 Y128.664 E0.85531
G1 X75.191 Y128.053 E0.86174
G1 X75.47 Y127.472 E0.86817
G1 X75.819 Y126.929 E0.87461
G1 X76.232 Y126.435 E0.88104
G1 X76.703 Y125.995 E0.88747
G1 X77.226 Y125.617 E0.89391
G1 X77.79 Y125.306 E0.90033
G1 X78.389 Y125.068 E0.90677
G1 X79.013 Y124.905 E0.9132
G1 X79.863 Y124.811 E0.92173
G1 X80.33 Y124.8 E0.92639
G1 X119.293 Y124.8 E1.31517
G1 X119.367 Y124.801 E1.31591
G1 X120.065 Y124.811 E1.32287
G0 F3600 X120.071 Y124.411
G1 F2400 X120.738 Y124.46 E1.32955
G1 X121.395 Y124.589 E1.33623
G1 X122.031 Y124.795 E1.3429
G1 X122.639 Y125.076 E1.34958
G1 X123.208 Y125.426 E1.35625
G1 X123.732 Y125.843 E1.36293
G1 X124.202 Y126.319 E1.3696
G1 X124.612 Y126.847 E1.37627
G1 X124.957 Y127.421 E1.38296
G1 X125.23 Y128.032 E1.38963
G1 X125.428 Y128.671 E1.39631
G1 X125.549 Y129.329 E1.40298
G1 X125.589 Y129.853 E1.40823
G1 X125.6 Y130.33 E1.41299
G1 X125.6 Y139.333 E1.50282
G1 X125.591 Y140.06 E1.51008
G1 X125.542 Y140.728 E1.51676
G1 X125.415 Y141.384 E1.52343
G1 X125.21 Y142.021 E1.5301
G1 X124.931 Y142.629 E1.53678
G1 X124.581 Y143.199 E1.54345
G1 X124.165 Y143.724 E1.55014
G1 X123.69 Y144.195 E1.55681
G1 X123.163 Y144.606 E1.56348
G1 X122.59 Y144.952 E1.57016
G1 X121.98 Y145.226 E1.57683
G1 X121.341 Y145.426 E1.58351
G1 X120.683 Y145.548 E1.59019
G1 X120.148 Y145.589 E1.59554
G1 X119.67 Y145.6 E1.60031
G1 X80.635 Y145.6 E1.98981
G1 X79.937 Y145.591 E1.99677
G1 X79.27 Y145.542 E2.00344
G1 X78.613 Y145.414 E2.01012
G1 X77.976 Y145.209 E2.0168
G1 X77.368 Y144.929 E2.02348
G1 X76.798 Y144.579 E2.03015
G1 X76.274 Y144.163 E2.03683
G1 X75.803 Y143.688 E2.0435
G1 X75.392 Y143.16 E2.05018
G1 X75.047 Y142.587 E2.05685
G1 X74.773 Y141.977 E2.06353
G1 X74.573 Y141.338 E2.07021
G1 X74.452 Y140.68 E2.07688
G1 X74.411 Y140.142 E2.08227
G1 X74.4 Y139.658 E2.0871
G1 X74.4 Y130.674 E2.17674
G1 X74.41 Y129.933 E2.18413
G1 X74.459 Y129.266 E2.19081
G1 X74.587 Y128.609 E2.19749
G1 X74.792 Y127.973 E2.20415
G1 X75.072 Y127.365 E2.21083
G1 X75.423 Y126.795 E2.21751
G1 X75.839 Y126.271 E2.22419
G1 X76.314 Y125.801 E2.23086
G1 X76.843 Y125.39 E2.23754
G1 X77.416 Y125.045 E2.24421
G1 X78.027 Y124.772 E2.25089
G1 X78.665 Y124.573 E2.25756
G1 X79.323 Y124.451 E2.26424
G1 X79.852 Y124.411 E2.26953
G1 X80.33 Y124.4 E2.2743
G1 X119.293 Y124.4 E2.66308
G1 X119.373 Y124.401 E2.66387
G1 X120.071 Y124.411 E2.67084
G1 F1500 E1.17084
G1 F600 Z1.06
;MESH:190-230_PLA_Temp_calibration.stl
G0 F3600 X81 Y139 Z1.06
;TYPE:WALL-INNER
G1 F600 Z0.06
G1 F1500 E2.67084
G1 F2400 X81 Y131 E2.75066
G1 X119 Y131 E3.12983
G1 X119 Y139 E3.20965
G1 X81 Y139 E3.58882
G0 F3600 X80.6 Y139.4
G1 F2400 X80.6 Y130.6 E3.67663
G1 X119.4 Y130.6 E4.06377
G1 X119.4 Y139.4 E4.15158
G1 X80.6 Y139.4 E4.53873
G0 F3600 X80.2 Y139.8
;TYPE:WALL-OUTER
G1 F2400 X80.2 Y130.2 E4.63452
G1 X119.8 Y130.2 E5.02965
G1 X119.8 Y139.8 E5.12544
G1 X80.2 Y139.8 E5.52057
G0 F3600 X80.2 Y139.6
G0 X80.67 Y139.33
G0 X81.39 Y138.61
;TYPE:SKIN
G1 F2400 X81.39 Y131.39 E5.59261
G1 X118.61 Y131.39 E5.96399
G1 X118.61 Y138.61 E6.03603
G1 X81.39 Y138.61 E6.40742
G0 F3600 X81.861 Y138.429
G1 F2400 X81.569 Y138.138 E6.41153
G0 F3600 X81.569 Y137.572
G1 F2400 X82.426 Y138.429 E6.42362
G0 F3600 X82.992 Y138.429
G1 F2400 X81.569 Y137.006 E6.4437
G0 F3600 X81.569 Y136.441
G1 F2400 X83.558 Y138.429 E6.47176
G0 F3600 X84.123 Y138.429
G1 F2400 X81.569 Y135.875 E6.5078
G0 F3600 X81.569 Y135.309
G1 F2400 X84.689 Y138.429 E6.55183
G0 F3600 X85.255 Y138.429
G1 F2400 X81.569 Y134.744 E6.60384
G0 F3600 X81.569 Y134.178
G1 F2400 X85.82 Y138.429 E6.66382
G0 F3600 X86.386 Y138.429
G1 F2400 X81.569 Y133.612 E6.73179
G0 F3600 X81.569 Y133.047
G1 F2400 X86.952 Y138.429 E6.80775
G0 F3600 X87.517 Y138.429
G1 F2400 X81.569 Y132.481 E6.89168
G0 F3600 X81.569 Y131.915
G1 F2400 X88.083 Y138.429 E6.9836
G0 F3600 X88.649 Y138.429
G1 F2400 X81.788 Y131.569 E7.08041
G0 F3600 X82.354 Y131.569
G1 F2400 X89.214 Y138.429 E7.17721
G0 F3600 X89.78 Y138.429
G1 F2400 X82.92 Y131.569 E7.27401
G0 F3600 X83.485 Y131.569
G1 F2400 X90.346 Y138.429 E7.37082
G0 F3600 X90.912 Y138.429
G1 F2400 X84.051 Y131.569 E7.46763
G0 F3600 X84.617 Y131.569
G1 F2400 X91.477 Y138.429 E7.56443
G0 F3600 X92.043 Y138.429
G1 F2400 X85.183 Y131.569 E7.66123
G0 F3600 X85.748 Y131.569
G1 F2400 X92.609 Y138.429 E7.75804
G0 F3600 X93.174 Y138.429
G1 F2400 X86.314 Y131.569 E7.85485
G0 F3600 X86.88 Y131.569
G1 F2400 X93.74 Y138.429 E7.95165
G0 F3600 X94.306 Y138.429
G1 F2400 X87.445 Y131.569 E8.04846
G0 F3600 X88.011 Y131.569
G1 F2400 X94.871 Y138.429 E8.14526
G0 F3600 X95.437 Y138.429
G1 F2400 X88.577 Y131.569 E8.24206
G0 F3600 X89.142 Y131.569
G1 F2400 X96.003 Y138.429 E8.33887
G0 F3600 X96.568 Y138.429
G1 F2400 X89.708 Y131.569 E8.43567
G0 F3600 X90.274 Y131.569
G1 F2400 X97.134 Y138.429 E8.53247
G0 F3600 X97.7 Y138.429
G1 F2400 X90.839 Y131.569 E8.62928
G0 F3600 X91.405 Y131.569
G1 F2400 X98.265 Y138.429 E8.72609
G0 F3600 X98.831 Y138.429
G1 F2400 X91.971 Y131.569 E8.82289
G0 F3600 X92.536 Y131.569
G1 F2400 X99.397 Y138.429 E8.9197
G0 F3600 X99.962 Y138.429
G1 F2400 X93.102 Y131.569 E9.0165
G0 F3600 X93.668 Y131.569
G1 F2400 X100.528 Y138.429 E9.1133
G0 F3600 X101.094 Y138.429
G1 F2400 X94.233 Y131.569 E9.21011
G0 F3600 X94.799 Y131.569
G1 F2400 X101.66 Y138.429 E9.30692
G0 F3600 X102.225 Y138.429
G1 F2400 X95.365 Y131.569 E9.40372
G0 F3600 X95.931 Y131.569
G1 F2400 X102.791 Y138.429 E9.50052
G0 F3600 X103.357 Y138.429
G1 F2400 X96.496 Y131.569 E9.59733
G0 F3600 X97.062 Y131.569
G1 F2400 X103.922 Y138.429 E9.69413
G0 F3600 X104.488 Y138.429
G1 F2400 X97.628 Y131.569 E9.79094
G0 F3600 X98.193 Y131.569
G1 F2400 X105.054 Y138.429 E9.88774
G0 F3600 X105.619 Y138.429
G1 F2400 X98.759 Y131.569 E9.98455
G0 F3600 X99.325 Y131.569
G1 F2400 X106.185 Y138.429 E10.08135
G0 F3600 X106.751 Y138.429
G1 F2400 X99.89 Y131.569 E10.17816
G0 F3600 X100.456 Y131.569
G1 F2400 X107.316 Y138.429 E10.27496
G0 F3600 X107.882 Y138.429
G1 F2400 X101.022 Y131.569 E10.37176
G0 F3600 X101.587 Y131.569
G1 F2400 X108.448 Y138.429 E10.46857
G0 F3600 X109.013 Y138.429
G1 F2400 X102.153 Y131.569 E10.56537
G0 F3600 X102.719 Y131.569
G1 F2400 X109.579 Y138.429 E10.66217
G0 F3600 X110.145 Y138.429
G1 F2400 X103.284 Y131.569 E10.75898
G0 F3600 X103.85 Y131.569
G1 F2400 X110.711 Y138.429 E10.85579
G0 F3600 X111.276 Y138.429
G1 F2400 X104.416 Y131.569 E10.95259
G0 F3600 X104.982 Y131.569
G1 F2400 X111.842 Y138.429 E11.0494
G0 F3600 X112.408 Y138.429
G1 F2400 X105.547 Y131.569 E11.14621
G0 F3600 X106.113 Y131.569
G1 F2400 X112.973 Y138.429 E11.24301
G0 F3600 X113.539 Y138.429
G1 F2400 X106.679 Y131.569 E11.33981
G0 F3600 X107.244 Y131.569
G1 F2400 X114.105 Y138.429 E11.43662
G0 F3600 X114.67 Y138.429
G1 F2400 X107.81 Y131.569 E11.53342
G0 F3600 X108.376 Y131.569
G1 F2400 X115.236 Y138.429 E11.63022
G0 F3600 X115.802 Y138.429
G1 F2400 X108.941 Y131.569 E11.72703
G0 F3600 X109.507 Y131.569
G1 F2400 X116.367 Y138.429 E11.82383
G0 F3600 X116.933 Y138.429
G1 F2400 X110.073 Y131.569 E11.92064
G0 F3600 X110.638 Y131.569
G1 F2400 X117.499 Y138.429 E12.01745
G0 F3600 X118.064 Y138.429
G1 F2400 X111.204 Y131.569 E12.11425
G0 F3600 X111.77 Y131.569
G1 F2400 X118.429 Y138.228 E12.20821
G0 F3600 X118.429 Y137.663
G1 F2400 X112.335 Y131.569 E12.29421
G0 F3600 X112.901 Y131.569
G1 F2400 X118.429 Y137.097 E12.37221
G0 F3600 X118.429 Y136.531
G1 F2400 X113.467 Y131.569 E12.44223
G0 F3600 X114.032 Y131.569
G1 F2400 X118.429 Y135.966 E12.50428
G0 F3600 X118.429 Y135.4
G1 F2400 X114.598 Y131.569 E12.55834
G0 F3600 X115.164 Y131.569
G1 F2400 X118.429 Y134.834 E12.60441
G0 F3600 X118.429 Y134.268
G1 F2400 X115.73 Y131.569 E12.6425
G0 F3600 X116.295 Y131.569
G1 F2400 X118.429 Y133.703 E12.67261
G0 F3600 X118.429 Y133.137
G1 F2400 X116.861 Y131.569 E12.69473
G0 F3600 X117.427 Y131.569
G1 F2400 X118.429 Y132.571 E12.70887
G0 F3600 X118.429 Y132.006
G1 F2400 X117.992 Y131.569 E12.71504
;MESH:NONMESH
G0 F600 X117.992 Y131.569 Z0.46
G0 F3600 X81 Y139
;TIME_ELAPSED:39.877971
;LAYER:1
M106 S127.5
;TYPE:WALL-INNER
;MESH:190-230_PLA_Temp_calibration.stl
G1 F3300 X81 Y131 E13.2472
G1 X119 Y131 E15.77497
G1 X119 Y139 E16.30714
G1 X81 Y139 E18.83491
G0 F5400 X80.6 Y139.4
G1 F3300 X80.6 Y130.6 E19.42028
G1 X119.4 Y130.6 E22.00127
G1 X119.4 Y139.4 E22.58665
G1 X80.6 Y139.4 E25.16764
G0 F5400 X80.2 Y139.8
;TYPE:WALL-OUTER
G1 F2550 X80.2 Y130.2 E25.80623
G1 X119.8 Y130.2 E28.44043
G1 X119.8 Y139.8 E29.07903
G1 X80.2 Y139.8 E31.71323
G0 F5400 X80.2 Y139.6
G0 X80.67 Y139.33
G0 X81.39 Y138.61
;TYPE:SKIN
G1 F2400 X81.39 Y131.39 E32.19351
G1 X118.61 Y131.39 E34.66939
G1 X118.61 Y138.61 E35.14967
G1 X81.39 Y138.61 E37.62555
G0 F5400 X81.569 Y131.693
G1 F2400 X81.694 Y131.569 E37.63726
G0 F5400 X82.259 Y131.569
G1 F2400 X81.569 Y132.259 E37.70217
G0 F5400 X81.569 Y132.825
G1 F2400 X82.825 Y131.569 E37.82033
G0 F5400 X83.391 Y131.569
G1 F2400 X81.569 Y133.39 E37.99169
G0 F5400 X81.569 Y133.956
G1 F2400 X83.956 Y131.569 E38.21624
G0 F5400 X84.522 Y131.569
G1 F2400 X81.569 Y134.522 E38.49404
G0 F5400 X81.569 Y135.087
G1 F2400 X85.088 Y131.569 E38.82504
G0 F5400 X85.653 Y131.569
G1 F2400 X81.569 Y135.653 E39.20924
G0 F5400 X81.569 Y136.219
G1 F2400 X86.219 Y131.569 E39.64668
G0 F5400 X86.785 Y131.569
G1 F2400 X81.569 Y136.784 E40.13732
G0 F5400 X81.569 Y137.35
G1 F2400 X87.351 Y131.569 E40.68121
G0 F5400 X87.916 Y131.569
G1 F2400 X81.569 Y137.916 E41.2783
G0 F5400 X81.622 Y138.429
G1 F2400 X88.482 Y131.569 E41.92365
G0 F5400 X89.048 Y131.569
G1 F2400 X82.187 Y138.429 E42.56904
G0 F5400 X82.753 Y138.429
G1 F2400 X89.613 Y131.569 E43.21439
G0 F5400 X90.179 Y131.569
G1 F2400 X83.319 Y138.429 E43.85973
G0 F5400 X83.884 Y138.429
G1 F2400 X90.745 Y131.569 E44.50513
G0 F5400 X91.31 Y131.569
G1 F2400 X84.45 Y138.429 E45.15047
G0 F5400 X85.016 Y138.429
G1 F2400 X91.876 Y131.569 E45.79582
G0 F5400 X92.442 Y131.569
G1 F2400 X85.581 Y138.429 E46.44121
G0 F5400 X86.147 Y138.429
G1 F2400 X93.007 Y131.569 E47.08656
G0 F5400 X93.573 Y131.569
G1 F2400 X86.713 Y138.429 E47.73191
G0 F5400 X87.278 Y138.429
G1 F2400 X94.139 Y131.569 E48.3773
G0 F5400 X94.704 Y131.569
G1 F2400 X87.844 Y138.429 E49.02265
G0 F5400 X88.41 Y138.429
G1 F2400 X95.27 Y131.569 E49.66799
G0 F5400 X95.836 Y131.569
G1 F2400 X88.975 Y138.429 E50.31339
G0 F5400 X89.541 Y138.429
G1 F2400 X96.401 Y131.569 E50.95873
G0 F5400 X96.967 Y131.569
G1 F2400 X90.107 Y138.429 E51.60408
G0 F5400 X90.673 Y138.429
G1 F2400 X97.533 Y131.569 E52.24943
G0 F5400 X98.099 Y131.569
G1 F2400 X91.238 Y138.429 E52.89482
G0 F5400 X91.804 Y138.429
G1 F2400 X98.664 Y131.569 E53.54017
G0 F5400 X99.23 Y131.569
G1 F2400 X92.37 Y138.429 E54.18552
G0 F5400 X92.935 Y138.429
G1 F2400 X99.796 Y131.569 E54.83091
G0 F5400 X100.361 Y131.569
G1 F2400 X93.501 Y138.429 E55.47626
G0 F5400 X94.067 Y138.429
G1 F2400 X100.927 Y131.569 E56.1216
G0 F5400 X101.493 Y131.569
G1 F2400 X94.632 Y138.429 E56.767
G0 F5400 X95.198 Y138.429
G1 F2400 X102.058 Y131.569 E57.41234
G0 F5400 X102.624 Y131.569
G1 F2400 X95.764 Y138.429 E58.05769
G0 F5400 X96.329 Y138.429
G1 F2400 X103.19 Y131.569 E58.70308
G0 F5400 X103.755 Y131.569
G1 F2400 X96.895 Y138.429 E59.34843
G0 F5400 X97.461 Y138.429
G1 F2400 X104.321 Y131.569 E59.99378
G0 F5400 X104.887 Y131.569
G1 F2400 X98.026 Y138.429 E60.63917
G0 F5400 X98.592 Y138.429
G1 F2400 X105.452 Y131.569 E61.28452
G0 F5400 X106.018 Y131.569
G1 F2400 X99.158 Y138.429 E61.92986
G0 F5400 X99.723 Y138.429
G1 F2400 X106.584 Y131.569 E62.57526
G0 F5400 X107.15 Y131.569
G1 F2400 X100.289 Y138.429 E63.22065
G0 F5400 X100.855 Y138.429
G1 F2400 X107.715 Y131.569 E63.866
G0 F5400 X108.281 Y131.569
G1 F2400 X101.421 Y138.429 E64.51135
G0 F5400 X101.986 Y138.429
G1 F2400 X108.847 Y131.569 E65.15674
G0 F5400 X109.412 Y131.569
G1 F2400 X102.552 Y138.429 E65.80209
G0 F5400 X103.118 Y138.429
G1 F2400 X109.978 Y131.569 E66.44743
G0 F5400 X110.544 Y131.569
G1 F2400 X103.683 Y138.429 E67.09283
G0 F5400 X104.249 Y138.429
G1 F2400 X111.109 Y131.569 E67.73817
G0 F5400 X111.675 Y131.569
G1 F2400 X104.815 Y138.429 E68.38352
G0 F5400 X105.38 Y138.429
G1 F2400 X112.241 Y131.569 E69.02891
G0 F5400 X112.806 Y131.569
G1 F2400 X105.946 Y138.429 E69.67426
G0 F5400 X106.512 Y138.429
G1 F2400 X113.372 Y131.569 E70.31961
G0 F5400 X113.938 Y131.569
G1 F2400 X107.077 Y138.429 E70.965
G0 F5400 X107.643 Y138.429
G1 F2400 X114.503 Y131.569 E71.61035
G0 F5400 X115.069 Y131.569
G1 F2400 X108.209 Y138.429 E72.25569
G0 F5400 X108.774 Y138.429
G1 F2400 X115.635 Y131.569 E72.90109
G0 F5400 X116.2 Y131.569
G1 F2400 X109.34 Y138.429 E73.54644
G0 F5400 X109.906 Y138.429
G1 F2400 X116.766 Y131.569 E74.19178
G0 F5400 X117.332 Y131.569
G1 F2400 X110.471 Y138.429 E74.83718
G0 F5400 X111.037 Y138.429
G1 F2400 X117.898 Y131.569 E75.48257
G0 F5400 X118.429 Y131.603
G1 F2400 X111.603 Y138.429 E76.12472
G0 F5400 X112.169 Y138.429
G1 F2400 X118.429 Y132.168 E76.71367
G0 F5400 X118.429 Y132.734
G1 F2400 X112.734 Y138.429 E77.24942
G0 F5400 X113.3 Y138.429
G1 F2400 X118.429 Y133.3 E77.73192
G0 F5400 X118.429 Y133.865
G1 F2400 X113.866 Y138.429 E78.16123
G0 F5400 X114.431 Y138.429
G1 F2400 X118.429 Y134.431 E78.53734
G0 F5400 X118.429 Y134.997
G1 F2400 X114.997 Y138.429 E78.8602
G0 F5400 X115.563 Y138.429
G1 F2400 X118.429 Y135.562 E79.12986
G0 F5400 X118.429 Y136.128
G1 F2400 X116.128 Y138.429 E79.34632
G0 F5400 X116.694 Y138.429
G1 F2400 X118.429 Y136.694 E79.50954
G0 F5400 X118.429 Y137.26
G1 F2400 X117.26 Y138.429 E79.61951
G0 F5400 X117.825 Y138.429
G1 F2400 X118.429 Y137.825 E79.67634
G1 X118.499 Y137.755
;MESH:NONMESH
G0 F600 X118.499 Y137.755 Z0.86
;ChangeAtZ V5.1.1: executed at Layer 1
M117 Printing... ch@L   1
M104 S230.000000 T0
G0 F5400 X81 Y139
;TIME_ELAPSED:66.099267
;LAYER:2
;TYPE:WALL-INNER
;MESH:190-230_PLA_Temp_calibration.stl
G1 F4200 X81 Y131 E80.2085
G1 X119 Y131 E82.73627
G1 X119 Y139 E83.26843
G1 X81 Y139 E85.7962
G0 F7200 X80.6 Y139.4
G1 F4200 X80.6 Y130.6 E86.38158
G1 X119.4 Y130.6 E88.96257
G1 X119.4 Y139.4 E89.54794
G1 X80.6 Y139.4 E92.12893
G0 F7200 X80.2 Y139.8
;TYPE:WALL-OUTER
G1 F2700 X80.2 Y130.2 E92.76752
G1 X119.8 Y130.2 E95.40173
G1 X119.8 Y139.8 E96.04032
G1 X80.2 Y139.8 E98.67452
G0 F7200 X80.2 Y139.6
G0 X80.67 Y139.33
G0 X81.39 Y138.61
;TYPE:SKIN
G1 F2400 X81.39 Y131.39 E99.1548
